X:935
T:Highland Mary
S:Bruce & Emmett's Drummers and Fifers Guide (1862), p. 93
M:2/4
L:1/8
Q:1/4=90
K:G
%%MIDI program 72
%%MIDI transpose 8
%%MIDI ratio 3 1
TA/G/|E2 A>B|A2 GA|B2 A>G|E2 B>^c|d3 e|d=cAF|{A}G>FG>A|B2 E2|c>Bc>e|d2 c>d|
e>d (3efg|a2 b>a|gedB|g2 B2|A4|e2 z||e|d2 e>f|g3 a|gedB|g2 GA|B2 ge|
d<B A>B|G>F G>A|B2 E2|c>Bc>e|d2 c>d|e>d (3efg|a2 b>a|gedB|g2 B2|A4|e2 z||
